X:4833
L:1/4
Q:1/4=115
M:4/4
K:C
"C" G G G3/2 A/ | G2 E2 | C E G c | e3 z |"F" d c B A |"C" G2 c2 |"D7" B A G ^F |"G" G3 z | 
"G7" G G A B |"C" d2 c2 |"Am" c c"Dm" d d |"E" e3 z |"C" e d c B |"Dm" d2 A2 |"G7" c B A B | 
"C" c3 z ||"G" d d d3/2 e/ | d2 B2 |"D" d c B A |"G" B3 z | d d d3/2 e/ | d2 B2 |"D7" d c B A | 
"G" G3 z |"C" G G G3/2 A/ | G2 E2 | C E G c | e3 z |"F" d c B A |"C" G2 c2 |"G7" c B A B | 
"C" c3 z |]

